icons/svg/sport/skateboard.svg

<?xml version="1.0" encoding="UTF-8" standalone="no"?>
<!-- Created with Inkscape (http://www.inkscape.org/) -->

<svg
   xmlns:dc="http://purl.org/dc/elements/1.1/"
   xmlns:cc="http://creativecommons.org/ns#"
   xmlns:rdf="http://www.w3.org/1999/02/22-rdf-syntax-ns#"
   xmlns:svg="http://www.w3.org/2000/svg"
   xmlns="http://www.w3.org/2000/svg"
   xmlns:sodipodi="http://sodipodi.sourceforge.net/DTD/sodipodi-0.dtd"
   xmlns:inkscape="http://www.inkscape.org/namespaces/inkscape"
   version="1.0"
   width="580"
   height="580"
   id="svg2"
   sodipodi:version="0.32"
   inkscape:version="0.48.4 r9939"
   sodipodi:docname="bmx.svg"
   inkscape:output_extension="org.inkscape.output.svg.inkscape">
  <metadata
     id="metadata2975">
    <rdf:RDF>
      <cc:Work
         rdf:about="">
        <dc:format>image/svg+xml</dc:format>
        <dc:type
           rdf:resource="http://purl.org/dc/dcmitype/StillImage" />
        <cc:license
           rdf:resource="http://web.resource.org/cc/PublicDomain" />
        <dc:language>en</dc:language>
        <dc:title></dc:title>
      </cc:Work>
    </rdf:RDF>
  </metadata>
  <sodipodi:namedview
     inkscape:window-height="1004"
     inkscape:window-width="1920"
     inkscape:pageshadow="2"
     inkscape:pageopacity="0.0"
     guidetolerance="10.0"
     gridtolerance="10.0"
     objecttolerance="10.0"
     borderopacity="1.0"
     bordercolor="#666666"
     pagecolor="#ffffff"
     id="base"
     inkscape:zoom="0.46083856"
     inkscape:cx="220.23791"
     inkscape:cy="311.71565"
     inkscape:window-x="1680"
     inkscape:window-y="0"
     inkscape:current-layer="svg2"
     showgrid="false"
     inkscape:window-maximized="1" />
  <defs
     id="defs4">
    <inkscape:perspective
       sodipodi:type="inkscape:persp3d"
       inkscape:vp_x="0 : 290 : 1"
       inkscape:vp_y="0 : 1000 : 0"
       inkscape:vp_z="580 : 290 : 1"
       inkscape:persp3d-origin="290 : 193.33333 : 1"
       id="perspective10" />
  </defs>
  <g
     id="g1327">
    <path
       d="M 66.275,1.768 C 24.94,1.768 1.704,23.139 1.704,66.804 l 0,450.123 c 0,40.844 20.895,62.229 62.192,62.229 l 452.024,0 c 41.307,0 62.229,-20.315 62.229,-62.229 l 0,-450.123 c 0,-42.601 -20.922,-65.036 -63.521,-65.036 -0.004,0 -448.495,-0.143 -448.353,0 z"
       style="fill:#111111;stroke:#eeeeee;stroke-width:3.40799999"
       id="path1329"
       inkscape:connector-curvature="0" />
  </g>
  <circle
     transform="matrix(17.775439,0,0,17.775439,58.919292,58.919293)"
     sodipodi:ry="2.5"
     sodipodi:rx="2.5"
     sodipodi:cy="2.5"
     sodipodi:cx="21.5"
     cx="21.5"
     cy="2.5"
     r="2.5"
     id="circle3-4"
     style="fill:#ffffff;fill-opacity:1" />
  <path
     inkscape:connector-curvature="0"
     d="m 361.10176,94.470171 h -88.8772 c -10.66526,0 -17.77544,7.110169 -17.77544,17.775439 0,10.66526 7.11018,17.77544 17.77544,17.77544 h 88.8772 c 10.66526,0 17.77544,-7.11018 17.77544,-17.77544 0,-10.66527 -7.11018,-17.775439 -17.77544,-17.775439 z"
     id="path5"
     style="fill:#ffffff;fill-opacity:1" />
  <path
     inkscape:connector-curvature="0"
     d="m 414.4281,183.34736 h -35.5509 l -35.55088,35.55088 h 71.10178 c 10.6652,0 17.7754,-7.11017 17.7754,-17.77544 0,-10.66526 -7.1102,-17.77544 -17.7754,-17.77544 z"
     id="path7"
     style="fill:#ffffff;fill-opacity:1" />
  <path
     inkscape:connector-curvature="0"
     d="m 265.11439,96.247715 -65.76913,30.218245 c -8.88772,3.55509 -12.44281,14.22035 -7.11017,23.10807 5.33263,8.88772 14.22035,12.44281 23.10807,8.88772 l 63.99158,-30.21825 c 8.88772,-3.55508 12.44281,-14.22035 8.88772,-23.10807 -3.55509,-8.887715 -14.22035,-12.442803 -23.10807,-8.887715 z"
     id="path9-4"
     style="fill:#ffffff;fill-opacity:1" />
  <path
     inkscape:connector-curvature="0"
     d="m 385.98737,105.13543 c -14.22035,-14.220347 -35.55088,-14.220347 -49.77123,0 l -90.65474,90.65474 c -14.22035,14.22035 -14.22035,35.55088 0,49.77123 7.11018,7.11018 15.9979,10.66527 24.88562,10.66527 8.88772,0 17.77544,-3.55509 24.88561,-10.66527 l 90.65474,-90.65474 c 14.22035,-12.44281 14.22035,-35.55088 0,-49.77123 z"
     id="path11"
     style="fill:#ffffff;fill-opacity:1" />
  <path
     inkscape:connector-curvature="0"
     d="m 350.43649,259.78175 -71.10175,-53.32631 c -10.66527,-8.88772 -28.4407,-7.11018 -37.32842,3.55508 -8.88772,10.66527 -7.11018,28.44071 3.55508,37.32843 l 60.4365,44.43859 v 94.20983 c 0,14.22035 12.4428,26.66316 26.66316,26.66316 14.22035,0 26.66315,-12.44281 26.66315,-26.66316 V 279.33474 c 1.77755,-7.11018 -1.77754,-14.22035 -8.88772,-19.55299 z"
     id="path13"
     style="fill:#ffffff;fill-opacity:1" />
  <circle
     transform="matrix(17.775439,0,0,17.775439,58.919292,58.919293)"
     sodipodi:ry="1.5"
     sodipodi:rx="1.5"
     sodipodi:cy="24.5"
     sodipodi:cx="17.5"
     cx="17.5"
     cy="24.5"
     r="1.5"
     id="circle15"
     style="fill:#ffffff;fill-opacity:1" />
  <circle
     transform="matrix(17.775439,0,0,17.775439,58.919292,58.919293)"
     sodipodi:ry="1.5"
     sodipodi:rx="1.5"
     sodipodi:cy="24.5"
     sodipodi:cx="8.5"
     cx="8.5"
     cy="24.5"
     r="1.5"
     id="circle17"
     style="fill:#ffffff;fill-opacity:1" />
  <path
     inkscape:connector-curvature="0"
     d="m 213.56561,350.43649 55.10386,-55.10386 -42.66105,-33.77333 -44.4386,46.21614 h -60.43649 c -14.22035,0 -26.663158,12.44281 -26.663158,26.66316 0,14.22035 12.442808,26.66316 26.663158,26.66316 H 188.68 c 8.88772,0 19.55298,-3.55509 24.88561,-10.66527 z"
     id="path19-4"
     style="fill:#ffffff;fill-opacity:1" />
  <path
     style="fill:none;stroke:#ffffff;stroke-width:35.55087662;stroke-linecap:round;stroke-miterlimit:10;stroke-opacity:1"
     inkscape:connector-curvature="0"
     stroke-miterlimit="10"
     d="m 432.2035,432.20351 -28.4407,14.22036 c -5.33262,1.77754 -10.66525,3.55508 -15.99788,3.55508 H 192.23509 c -5.33264,0 -10.66527,-1.77754 -15.9979,-3.55508 l -28.4407,-14.22036"
     id="path21-6" />
</svg>

<svg width="580" height="580" viewBox="0 0 580 580" fill="none" xmlns="http://www.w3.org/2000/svg">
<g clip-path="url(#clip0)">
<path d="M66.2751 1.76815C24.9401 1.76815 1.7041 23.1391 1.7041 66.8041V516.927C1.7041 557.771 22.5991 579.156 63.8961 579.156H515.92C557.227 579.156 578.149 558.841 578.149 516.927V66.8041C578.149 24.2031 557.227 1.76815 514.628 1.76815C514.624 1.76815 66.1331 1.62515 66.2751 1.76815V1.76815Z" fill="#111111" stroke="#EEEEEE" stroke-width="3.408"/>
<path d="M441.091 147.797C465.634 147.797 485.53 127.901 485.53 103.358C485.53 78.8153 465.634 58.9194 441.091 58.9194C416.549 58.9194 396.653 78.8153 396.653 103.358C396.653 127.901 416.549 147.797 441.091 147.797Z" fill="white"/>
<path d="M361.102 94.4702H272.225C261.559 94.4702 254.449 101.58 254.449 112.246C254.449 122.911 261.559 130.021 272.225 130.021H361.102C371.767 130.021 378.877 122.911 378.877 112.246C378.877 101.58 371.767 94.4702 361.102 94.4702Z" fill="white"/>
<path d="M414.428 183.347H378.877L343.326 218.898H414.428C425.093 218.898 432.203 211.788 432.203 201.123C432.203 190.457 425.093 183.347 414.428 183.347Z" fill="white"/>
<path d="M265.114 96.2476L199.345 126.466C190.457 130.021 186.902 140.686 192.235 149.574C197.568 158.462 206.455 162.017 215.343 158.462L279.335 128.243C288.222 124.688 291.777 114.023 288.222 105.135C284.667 96.2476 274.002 92.6925 265.114 96.2476V96.2476Z" fill="white"/>
<path d="M385.987 105.135C371.767 90.9151 350.436 90.9151 336.216 105.135L245.561 195.79C231.341 210.011 231.341 231.341 245.561 245.561C252.671 252.672 261.559 256.227 270.447 256.227C279.335 256.227 288.222 252.672 295.333 245.561L385.987 154.907C400.208 142.464 400.208 119.356 385.987 105.135V105.135Z" fill="white"/>
<path d="M350.437 259.782L279.335 206.455C268.67 197.568 250.894 199.345 242.007 210.01C233.119 220.676 234.896 238.451 245.562 247.339L305.998 291.777V385.987C305.998 400.208 318.441 412.65 332.661 412.65C346.882 412.65 359.324 400.208 359.324 385.987V279.335C361.102 272.224 357.547 265.114 350.437 259.782Z" fill="white"/>
<path d="M369.989 521.081C384.715 521.081 396.652 509.143 396.652 494.418C396.652 479.692 384.715 467.754 369.989 467.754C355.264 467.754 343.326 479.692 343.326 494.418C343.326 509.143 355.264 521.081 369.989 521.081Z" fill="white"/>
<path d="M210.01 521.081C224.736 521.081 236.673 509.143 236.673 494.418C236.673 479.692 224.736 467.754 210.01 467.754C195.285 467.754 183.347 479.692 183.347 494.418C183.347 509.143 195.285 521.081 210.01 521.081Z" fill="white"/>
<path d="M213.566 350.436L268.67 295.332L226.008 261.559L181.57 307.775H121.133C106.913 307.775 94.4702 320.218 94.4702 334.438C94.4702 348.659 106.913 361.102 121.133 361.102H188.68C197.568 361.102 208.233 357.546 213.566 350.436Z" fill="white"/>
<path d="M432.203 432.204L403.763 446.424C398.43 448.201 393.097 449.979 387.765 449.979H192.235C186.902 449.979 181.57 448.201 176.237 446.424L147.796 432.204" stroke="white" stroke-width="35.5509" stroke-miterlimit="10" stroke-linecap="round"/>
</g>
<defs>
<clipPath id="clip0">
<path d="M0 0H580V580H0V0Z" fill="white"/>
</clipPath>
</defs>
</svg>
